other/sdorica.svg

<?xml version="1.0" encoding="UTF-8" standalone="no"?>
<svg
   viewBox="0 0 48 48"
   version="1.1"
   id="svg8"
   sodipodi:docname="sdorica.svg"
   xml:space="preserve"
   inkscape:version="1.2.2 (b0a8486541, 2022-12-01)"
   xmlns:inkscape="http://www.inkscape.org/namespaces/inkscape"
   xmlns:sodipodi="http://sodipodi.sourceforge.net/DTD/sodipodi-0.dtd"
   xmlns="http://www.w3.org/2000/svg"
   xmlns:svg="http://www.w3.org/2000/svg"><sodipodi:namedview
     id="namedview10"
     pagecolor="#505050"
     bordercolor="#eeeeee"
     borderopacity="1"
     inkscape:showpageshadow="0"
     inkscape:pageopacity="0"
     inkscape:pagecheckerboard="0"
     inkscape:deskcolor="#505050"
     showgrid="false"
     showguides="true"
     inkscape:zoom="4.0000001"
     inkscape:cx="31.749999"
     inkscape:cy="48.499998"
     inkscape:window-width="960"
     inkscape:window-height="1027"
     inkscape:window-x="2400"
     inkscape:window-y="24"
     inkscape:window-maximized="0"
     inkscape:current-layer="g40027"><sodipodi:guide
       position="18.89695,23.985829"
       orientation="0,-1"
       id="guide896"
       inkscape:locked="false" /><sodipodi:guide
       position="24.002271,41.516899"
       orientation="1,0"
       id="guide898"
       inkscape:locked="false" /><sodipodi:guide
       position="24.001963,24.003471"
       orientation="1,0"
       id="guide43860"
       inkscape:locked="false" /></sodipodi:namedview><defs
     id="defs4"><inkscape:path-effect
       effect="mirror_symmetry"
       start_point="24,10.564205"
       center_point="24,19.228786"
       id="path-effect39925"
       is_visible="true"
       lpeversion="1.2"
       lpesatellites=""
       mode="vertical"
       discard_orig_path="false"
       fuse_paths="false"
       oposite_fuse="false"
       split_items="false"
       split_open="false"
       link_styles="false"
       end_point="24,27.893366" /><inkscape:path-effect
       effect="mirror_symmetry"
       start_point="17.623797,18.444911"
       center_point="24.071447,24.735987"
       id="path-effect39919"
       is_visible="true"
       lpeversion="1.2"
       lpesatellites=""
       mode="vertical"
       discard_orig_path="false"
       fuse_paths="false"
       oposite_fuse="false"
       split_items="false"
       split_open="false"
       link_styles="false"
       end_point="24.071447,45.232833" /><inkscape:path-effect
       effect="mirror_symmetry"
       start_point="24,10.564205"
       center_point="24,19.228786"
       id="path-effect39913"
       is_visible="true"
       lpeversion="1.2"
       lpesatellites=""
       mode="vertical"
       discard_orig_path="false"
       fuse_paths="false"
       oposite_fuse="false"
       split_items="false"
       split_open="false"
       link_styles="false"
       end_point="24,27.893366" /><style
       id="style2">.a{fill:none;stroke:#fff;stroke-linecap:round;stroke-linejoin:round;}</style><inkscape:path-effect
       effect="mirror_symmetry"
       start_point="24,10.564205"
       center_point="24,19.228786"
       id="path-effect1782"
       is_visible="true"
       lpeversion="1.2"
       lpesatellites=""
       mode="vertical"
       discard_orig_path="false"
       fuse_paths="false"
       oposite_fuse="false"
       split_items="false"
       split_open="false"
       link_styles="false"
       end_point="24,27.893366" /><inkscape:path-effect
       effect="mirror_symmetry"
       start_point="20.335778,12.679074"
       center_point="20.335778,15.431926"
       id="path-effect8828"
       is_visible="true"
       lpeversion="1.2"
       lpesatellites=""
       mode="vertical"
       discard_orig_path="false"
       fuse_paths="false"
       oposite_fuse="false"
       split_items="false"
       split_open="false"
       link_styles="false"
       end_point="20.335778,18.184779" /><inkscape:path-effect
       effect="mirror_symmetry"
       start_point="20.347343,12.820147"
       center_point="20.347343,15.576785"
       id="path-effect8784"
       is_visible="true"
       lpeversion="1.2"
       lpesatellites=""
       mode="vertical"
       discard_orig_path="false"
       fuse_paths="false"
       oposite_fuse="false"
       split_items="false"
       split_open="false"
       link_styles="false"
       end_point="20.347343,18.333423" /><inkscape:path-effect
       effect="mirror_symmetry"
       start_point="20.847591,21.904528"
       center_point="20.847591,28.975083"
       id="path-effect8782"
       is_visible="true"
       lpeversion="1.2"
       lpesatellites=""
       mode="vertical"
       discard_orig_path="false"
       fuse_paths="false"
       oposite_fuse="false"
       split_items="false"
       split_open="false"
       link_styles="false"
       end_point="20.847591,36.045638" /><inkscape:path-effect
       end_point="24,27.066973"
       center_point="24,18.00509"
       start_point="24,8.9432073"
       effect="mirror_symmetry"
       id="path-effect7293"
       is_visible="true"
       lpeversion="1.2"
       lpesatellites=""
       mode="free"
       discard_orig_path="false"
       fuse_paths="false"
       oposite_fuse="false"
       split_items="false"
       split_open="false"
       link_styles="false" /><inkscape:path-effect
       effect="mirror_symmetry"
       start_point="10.86936,24.013673"
       center_point="20.809449,24.013673"
       id="path-effect5445"
       is_visible="true"
       lpeversion="1.2"
       lpesatellites=""
       mode="vertical"
       discard_orig_path="false"
       fuse_paths="false"
       oposite_fuse="false"
       split_items="false"
       split_open="false"
       link_styles="false"
       end_point="20.809449,35.2072" /><inkscape:path-effect
       effect="mirror_symmetry"
       start_point="24,6.9305359"
       center_point="24,24.114337"
       id="path-effect5421"
       is_visible="true"
       lpeversion="1.2"
       lpesatellites=""
       mode="free"
       discard_orig_path="false"
       fuse_paths="false"
       oposite_fuse="false"
       split_items="false"
       split_open="false"
       link_styles="false"
       end_point="24,41.298138" /><clipPath
       clipPathUnits="userSpaceOnUse"
       id="clipPath7143"><g
         id="g7147"><g
           inkscape:label="Clip"
           id="use7145"
           style="stroke:#ffffff;stroke-opacity:1"
           clip-path="url(#clipPath7143)"><path
             style="fill:none;stroke:#ffffff;stroke-width:1;stroke-linecap:round;stroke-linejoin:round;stroke-dasharray:none;stroke-opacity:1"
             d="m 20.347343,18.333423 c 0,0 -1.41131,-1.829933 -2.987594,-2.860896 -1.576286,-1.030964 -2.020714,-1.676252 -2.53194,-2.65238 l 0.777808,4.102616 z"
             id="path7149" /><path
             style="fill:none;stroke:#ffffff;stroke-width:1px;stroke-linecap:round;stroke-linejoin:round;stroke-opacity:1"
             d="m 10.86936,27.293885 1.633182,-4.174309 c 0,0 1.096671,0.417145 2.085333,2.297154 z"
             id="path7151" /><path
             style="fill:none;stroke:#ffffff;stroke-width:1px;stroke-linecap:round;stroke-linejoin:round;stroke-opacity:1"
             d="m 13.66678,32.306733 2.545774,-5.350353 c 0,0 1.114052,0.660187 1.60752,3.268752 z"
             id="path7153" /><path
             style="fill:none;stroke:#ffffff;stroke-width:1px;stroke-linecap:round;stroke-linejoin:round;stroke-opacity:1;paint-order:normal"
             d="m 20.809445,35.2072 c 0,0 -1.066797,-1.642299 -1.494982,-3.44941 0,0 0.628576,-3.761256 -4.278809,-8.287415 0,0 -2.786127,-1.948329 -2.838996,-4.31823 0,0 3.784429,3.960927 4.325982,4.190053 0,0 3.410278,1.09414 4.264509,7.652568 0,0 -1.128698,2.878456 0.0223,4.212434 z"
             id="path7155" /></g></g></clipPath><style
       id="style39931">.a{fill:none;stroke:#fff;stroke-linecap:round;stroke-linejoin:round;}</style><style
       id="style43053">.a{fill:none;stroke:#fff;stroke-linecap:round;stroke-linejoin:round;}</style><style
       id="style43824">.a{fill:none;stroke:#fff;stroke-linecap:round;stroke-linejoin:round;}</style><style
       id="style43836">.a{fill:none;stroke:#fff;stroke-linecap:round;stroke-linejoin:round;}</style><style
       id="style43848">.a{fill:none;stroke:#fff;stroke-linecap:round;stroke-linejoin:round;}</style></defs><g
     id="g40027"
     style="stroke-width:1;stroke-dasharray:none"><path
       style="display:inline;fill:none;stroke:#ffffff;stroke-width:1;stroke-linecap:round;stroke-linejoin:round;stroke-dasharray:none;stroke-opacity:1"
       d="m 23.9653,4.63427 c 0,0 -0.2551,2.64193 -4.7177,6.04013 0,0 2.6432,1.2231 2.5397,7.3929 m -0.9559,1.4396 c -1.437,-0.4455 -5.5736,0.0073 -12.49302,-7.2002 l 1.61829,4.6083 c 1.76493,1.3475 13.87263,5.0061 12.80913,20.4663 l 1.1995,5.9845 M 24.0347,4.63427 c 0,0 0.2552,2.64193 4.7178,6.04013 0,0 -2.6432,1.2231 -2.5398,7.3929 m 0.956,1.4396 c 1.4369,-0.4455 5.5736,0.0073 12.493,-7.2002 l -1.6183,4.6083 c -1.765,1.3475 -13.8726,5.0061 -12.8091,20.4663 l -1.1996,5.9845"
       id="path39921"
       class="UnoptimicedTransforms" /><path
       style="display:inline;fill:none;stroke:#ffffff;stroke-width:1;stroke-linecap:round;stroke-linejoin:round;stroke-dasharray:none;stroke-opacity:1"
       d="m 19.8674,16.6337 c 0,0 0.0056,-1.2948 -2.6905,-3.2006 -1.8981,-1.3417 -3.5449,-2.5399 -4.1435,-3.68285 l 1.3088,5.11575 z m 8.2653,0 c 0,0 -0.0056,-1.2948 2.6905,-3.2006 1.8981,-1.3417 3.5448,-2.5399 4.1434,-3.68285 L 33.6579,14.866 Z"
       id="path39915"
       class="UnoptimicedTransforms" /><path
       style="display:inline;fill:none;stroke:#ffffff;stroke-width:1;stroke-linecap:round;stroke-linejoin:round;stroke-dasharray:none;stroke-opacity:1"
       d="M 19.8204,37.7291 C 20.3511,28.4948 17.718,29.167 8.95842,18.5915 c 0,0 1.42698,3.6674 2.07188,5.2484 l -1.77205,3.2924 3.38485,-1.1739 c 0,0 1.9303,1.706 2.1543,2.5128 l -2.5372,5.7429 4.769,-2.708 c 0,0 2.1635,3.4217 2.7912,6.223 z m 8.3593,0 c -0.5307,-9.2343 2.1024,-8.5621 10.8619,-19.1376 0,0 -1.4269,3.6674 -2.0718,5.2484 l 1.772,3.2924 -3.3848,-1.1739 c 0,0 -1.9304,1.706 -2.1543,2.5128 l 2.5371,5.7429 -4.769,-2.708 c 0,0 -2.1635,3.4217 -2.7911,6.223 z"
       id="path39909"
       class="UnoptimicedTransforms" /><path
       style="display:inline;fill:none;stroke:#ffffff;stroke-width:1;stroke-linecap:round;stroke-linejoin:round;stroke-dasharray:none;stroke-opacity:1"
       d="m 22.0386,8.11209 c 1.1203,1.95961 1.0204,8.36701 1.0204,8.36701 -1.3955,1.7641 -2.0784,3.0488 -3.3103,4.572 0.7528,0.7587 2.6253,2.0349 4.2166,8.0415 M 25.9615,8.11209 c -1.1204,1.95961 -1.0204,8.36701 -1.0204,8.36701 1.3955,1.7641 2.0783,3.0488 3.3103,4.572 -0.7528,0.7587 -2.6254,2.0349 -4.2167,8.0415"
       id="path1780"
       class="UnoptimicedTransforms" /></g></svg>

<?xml version="1.0" encoding="UTF-8" standalone="no"?>
<svg
   width="48"
   height="48"
   viewBox="0 0 48 48"
   version="1.1"
   id="svg8"
   sodipodi:docname="sdorica.svg"
   xml:space="preserve"
   inkscape:version="1.2.2 (b0a8486541, 2022-12-01)"
   xmlns:inkscape="http://www.inkscape.org/namespaces/inkscape"
   xmlns:sodipodi="http://sodipodi.sourceforge.net/DTD/sodipodi-0.dtd"
   xmlns="http://www.w3.org/2000/svg"
   xmlns:svg="http://www.w3.org/2000/svg"><sodipodi:namedview
     id="namedview10"
     pagecolor="#505050"
     bordercolor="#eeeeee"
     borderopacity="1"
     inkscape:showpageshadow="0"
     inkscape:pageopacity="0"
     inkscape:pagecheckerboard="0"
     inkscape:deskcolor="#505050"
     showgrid="false"
     showguides="true"
     inkscape:zoom="8.0000003"
     inkscape:cx="33.749999"
     inkscape:cy="22.749999"
     inkscape:window-width="960"
     inkscape:window-height="1051"
     inkscape:window-x="2400"
     inkscape:window-y="0"
     inkscape:window-maximized="0"
     inkscape:current-layer="svg8" /><defs
     id="defs4"><inkscape:path-effect
       effect="mirror_symmetry"
       start_point="24,10.564205"
       center_point="24,19.228786"
       id="path-effect39925"
       is_visible="true"
       lpeversion="1.2"
       lpesatellites=""
       mode="vertical"
       discard_orig_path="false"
       fuse_paths="false"
       oposite_fuse="false"
       split_items="false"
       split_open="false"
       link_styles="false"
       end_point="24,27.893366" /><inkscape:path-effect
       effect="mirror_symmetry"
       start_point="17.623797,18.444911"
       center_point="24.071447,24.735987"
       id="path-effect39919"
       is_visible="true"
       lpeversion="1.2"
       lpesatellites=""
       mode="vertical"
       discard_orig_path="false"
       fuse_paths="false"
       oposite_fuse="false"
       split_items="false"
       split_open="false"
       link_styles="false"
       end_point="24.071447,45.232833" /><inkscape:path-effect
       effect="mirror_symmetry"
       start_point="24,10.564205"
       center_point="24,19.228786"
       id="path-effect39913"
       is_visible="true"
       lpeversion="1.2"
       lpesatellites=""
       mode="vertical"
       discard_orig_path="false"
       fuse_paths="false"
       oposite_fuse="false"
       split_items="false"
       split_open="false"
       link_styles="false"
       end_point="24,27.893366" /><style
       id="style2">.a{fill:none;stroke:#fff;stroke-linecap:round;stroke-linejoin:round;}</style><inkscape:path-effect
       effect="mirror_symmetry"
       start_point="24,10.564205"
       center_point="24,19.228786"
       id="path-effect1782"
       is_visible="true"
       lpeversion="1.2"
       lpesatellites=""
       mode="vertical"
       discard_orig_path="false"
       fuse_paths="false"
       oposite_fuse="false"
       split_items="false"
       split_open="false"
       link_styles="false"
       end_point="24,27.893366" /><inkscape:path-effect
       effect="mirror_symmetry"
       start_point="20.335778,12.679074"
       center_point="20.335778,15.431926"
       id="path-effect8828"
       is_visible="true"
       lpeversion="1.2"
       lpesatellites=""
       mode="vertical"
       discard_orig_path="false"
       fuse_paths="false"
       oposite_fuse="false"
       split_items="false"
       split_open="false"
       link_styles="false"
       end_point="20.335778,18.184779" /><inkscape:path-effect
       effect="mirror_symmetry"
       start_point="20.347343,12.820147"
       center_point="20.347343,15.576785"
       id="path-effect8784"
       is_visible="true"
       lpeversion="1.2"
       lpesatellites=""
       mode="vertical"
       discard_orig_path="false"
       fuse_paths="false"
       oposite_fuse="false"
       split_items="false"
       split_open="false"
       link_styles="false"
       end_point="20.347343,18.333423" /><inkscape:path-effect
       effect="mirror_symmetry"
       start_point="20.847591,21.904528"
       center_point="20.847591,28.975083"
       id="path-effect8782"
       is_visible="true"
       lpeversion="1.2"
       lpesatellites=""
       mode="vertical"
       discard_orig_path="false"
       fuse_paths="false"
       oposite_fuse="false"
       split_items="false"
       split_open="false"
       link_styles="false"
       end_point="20.847591,36.045638" /><inkscape:path-effect
       end_point="24,27.066973"
       center_point="24,18.00509"
       start_point="24,8.9432073"
       effect="mirror_symmetry"
       id="path-effect7293"
       is_visible="true"
       lpeversion="1.2"
       lpesatellites=""
       mode="free"
       discard_orig_path="false"
       fuse_paths="false"
       oposite_fuse="false"
       split_items="false"
       split_open="false"
       link_styles="false" /><inkscape:path-effect
       effect="mirror_symmetry"
       start_point="10.86936,24.013673"
       center_point="20.809449,24.013673"
       id="path-effect5445"
       is_visible="true"
       lpeversion="1.2"
       lpesatellites=""
       mode="vertical"
       discard_orig_path="false"
       fuse_paths="false"
       oposite_fuse="false"
       split_items="false"
       split_open="false"
       link_styles="false"
       end_point="20.809449,35.2072" /><inkscape:path-effect
       effect="mirror_symmetry"
       start_point="24,6.9305359"
       center_point="24,24.114337"
       id="path-effect5421"
       is_visible="true"
       lpeversion="1.2"
       lpesatellites=""
       mode="free"
       discard_orig_path="false"
       fuse_paths="false"
       oposite_fuse="false"
       split_items="false"
       split_open="false"
       link_styles="false"
       end_point="24,41.298138" /><clipPath
       clipPathUnits="userSpaceOnUse"
       id="clipPath7143"><g
         id="g7147"><g
           inkscape:label="Clip"
           id="use7145"
           style="stroke:#ffffff;stroke-opacity:1"
           clip-path="url(#clipPath7143)"><path
             style="fill:none;stroke:#ffffff;stroke-width:1;stroke-linecap:round;stroke-linejoin:round;stroke-dasharray:none;stroke-opacity:1"
             d="m 20.347343,18.333423 c 0,0 -1.41131,-1.829933 -2.987594,-2.860896 -1.576286,-1.030964 -2.020714,-1.676252 -2.53194,-2.65238 l 0.777808,4.102616 z"
             id="path7149" /><path
             style="fill:none;stroke:#ffffff;stroke-width:1px;stroke-linecap:round;stroke-linejoin:round;stroke-opacity:1"
             d="m 10.86936,27.293885 1.633182,-4.174309 c 0,0 1.096671,0.417145 2.085333,2.297154 z"
             id="path7151" /><path
             style="fill:none;stroke:#ffffff;stroke-width:1px;stroke-linecap:round;stroke-linejoin:round;stroke-opacity:1"
             d="m 13.66678,32.306733 2.545774,-5.350353 c 0,0 1.114052,0.660187 1.60752,3.268752 z"
             id="path7153" /><path
             style="fill:none;stroke:#ffffff;stroke-width:1px;stroke-linecap:round;stroke-linejoin:round;stroke-opacity:1;paint-order:normal"
             d="m 20.809445,35.2072 c 0,0 -1.066797,-1.642299 -1.494982,-3.44941 0,0 0.628576,-3.761256 -4.278809,-8.287415 0,0 -2.786127,-1.948329 -2.838996,-4.31823 0,0 3.784429,3.960927 4.325982,4.190053 0,0 3.410278,1.09414 4.264509,7.652568 0,0 -1.128698,2.878456 0.0223,4.212434 z"
             id="path7155" /></g></g></clipPath><style
       id="style39931">.a{fill:none;stroke:#fff;stroke-linecap:round;stroke-linejoin:round;}</style><style
       id="style43053">.a{fill:none;stroke:#fff;stroke-linecap:round;stroke-linejoin:round;}</style><style
       id="style43824">.a{fill:none;stroke:#fff;stroke-linecap:round;stroke-linejoin:round;}</style><style
       id="style43836">.a{fill:none;stroke:#fff;stroke-linecap:round;stroke-linejoin:round;}</style><style
       id="style43848">.a{fill:none;stroke:#fff;stroke-linecap:round;stroke-linejoin:round;}</style></defs><path
     style="display:inline;fill:none;stroke:#ffffff;stroke-dasharray:none;stroke-linecap:round;stroke-linejoin:round;stroke-opacity:1;stroke-width:0.9999981218499999"
     d="M 23.9652 4.63425 C 23.9652 4.63425 23.7101 7.27616 19.2475 10.6744 C 19.2475 10.6744 21.8907 11.8975 21.7873 18.0672 M 20.8313 19.5068 C 19.3944 19.0613 15.2578 19.5142 8.33836 12.3067 L 9.95664 16.915 C 11.7216 18.2624 23.8292 21.921 22.7657 37.3811 L 23.9652 43.3657 M 24.0347 4.63425 C 24.0347 4.63425 24.2898 7.27616 28.7524 10.6744 C 28.7524 10.6744 26.1092 11.8975 26.2127 18.0672 M 27.1686 19.5068 C 28.6055 19.0613 32.7422 19.5142 39.6616 12.3067 L 38.0433 16.915 C 36.2783 18.2624 24.1707 21.921 25.2342 37.3811 L 24.0347 43.3657"
     id="path39921"
     class="UnoptimicedTransforms" /><path
     style="display:inline;fill:none;stroke:#ffffff;stroke-dasharray:none;stroke-linecap:round;stroke-linejoin:round;stroke-opacity:1;stroke-width:0.9999981218499999"
     d="M 19.8673 16.6337 C 19.8673 16.6337 19.8729 15.3388 17.1769 13.4331 C 15.2787 12.0914 13.632 10.8932 13.0334 9.75022 L 14.3421 14.866 Z M 28.1326 16.6337 C 28.1326 16.6337 28.127 15.3388 30.8231 13.4331 C 32.7212 12.0914 34.3679 10.8932 34.9665 9.75022 L 33.6578 14.866 Z"
     id="path39915"
     class="UnoptimicedTransforms" /><path
     style="display:inline;fill:none;stroke:#ffffff;stroke-dasharray:none;stroke-linecap:round;stroke-linejoin:round;stroke-opacity:1;stroke-width:0.9999981218499999"
     d="M 19.8203 37.729 C 20.351 28.4947 17.7179 29.1669 8.95839 18.5914 C 8.95839 18.5914 10.3853 22.2588 11.0302 23.8398 L 9.25822 27.1322 L 12.6431 25.9583 C 12.6431 25.9583 14.5734 27.6643 14.7973 28.4711 L 12.2602 34.214 L 17.0292 31.5059 C 17.0292 31.5059 19.1927 34.9277 19.8203 37.729 Z M 28.1796 37.729 C 27.6489 28.4947 30.282 29.1669 39.0415 18.5914 C 39.0415 18.5914 37.6146 22.2588 36.9697 23.8398 L 38.7417 27.1322 L 35.3569 25.9583 C 35.3569 25.9583 33.4265 27.6643 33.2026 28.4711 L 35.7397 34.214 L 30.9707 31.5059 C 30.9707 31.5059 28.8072 34.9277 28.1796 37.729 Z"
     id="path39909"
     class="UnoptimicedTransforms" /><path
     style="display:inline;fill:none;stroke:#ffffff;stroke-dasharray:none;stroke-linecap:round;stroke-linejoin:round;stroke-opacity:1;stroke-width:0.9999981218499999"
     d="M 22.0385 8.11206 C 23.1588 10.0717 23.0589 16.479 23.0589 16.479 C 21.6634 18.2431 20.9806 19.5278 19.7486 21.0511 C 20.5014 21.8097 22.374 23.0859 23.9652 29.0925 M 25.9614 8.11206 C 24.8411 10.0717 24.941 16.479 24.941 16.479 C 26.3365 18.2431 27.0193 19.5278 28.2513 21.0511 C 27.4985 21.8097 25.6259 23.0859 24.0347 29.0925"
     id="path1780"
     class="UnoptimicedTransforms" /></svg>
